src/icons/icons_set_03/043-phone.svg

<svg height="50" viewBox="0 0 50 50" width="50" xmlns="http://www.w3.org/2000/svg"><g fill="#000" fill-rule="nonzero"><path d="m34.5848112 31.7303814-3.8500379 3.7558011c-.1163991.11355-.2395804.2198636-.3688473.3183622-2.1045653 1.7350082-5.4909937 1.3421155-8.1868987-1.2882275l-.019291-.0182c-.0091526-.0086365-.0091526-.0086365-.0677159-.0646958-1.2954039-1.2648516-2.1740583-2.1215439-2.7095933-2.6423735-.1899191-.184704-.2778235-.2700105-.4067339-.3948251-.0900071-.0858541-.0900071-.0858541.0516774.0439539l-.1185551-.1083895c-.1183733-.1126693-1.0414733-1.0108936-3.271873-3.1868938-2.6003594-2.5350953-3.1163708-5.5399081-1.7156007-7.8188995.1723171-.2803524.3785717-.5383693.6140878-.7682014l3.7843757-3.6930413-5.566295-5.4314603-3.99229222 3.8952319c-1.47270817 2.6966036-.76372589 6.2981855 1.91787912 10.5920012 1.1067433 1.7721296 2.4650504 3.514218 3.9492895 5.1503591.552401.6089355 1.0921846 1.169619 1.6034426 1.6739408.34777.3430519.637117.6158105.8505443.8090315.0975815.088343.1907428.1814488.2791438.2789777.4174838.4605914 1.0382505 1.099265 1.8274935 1.8442985 1.1997792 1.1325734 2.5031044 2.2355296 3.870595 3.2372364 3.5455282 2.5971509 6.9441767 4.085977 9.7543626 4.0855924 1.141325 0 2.1795894-.2443115 3.1562217-.7592399l4.1818383-4.0792159zm6.3077545.5654181c-.6573077.662879-1.0847726 1.6107346-1.0847726 2.8435668l4 .0003961c1.1419109 1.1136633 1.1427227 2.9271287.0012178 4.0423762l-5.2995545 5.169505c-.1420792.1386138-.3077029.2487128-.4879406.3271287-1.6850594.930693-3.443594 1.3211881-5.207 1.3211881-8.6822574.0011881-17.4952277-9.4641584-18.4167128-10.4807921-1.2283763-1.1120792-14.74619805-13.6930693-8.96763369-23.4229703.07509901-.1425742.17374257-.2760396.29633663-.3952475l4.95450496-4.83405941c1.141099-1.11405941 2.999901-1.11445545 4.1438416-.00118812l7.1518614 6.97861383c.5528911.539802.8577524 1.2574258.8577524 2.0205941s-.3048613 1.4807921-.8581584 2.0205941l-4.6472079 4.5350495c-.1404554.2285148-.5784653 1.2237623 1.100099 2.860198 2.8967921 2.8261386 3.2207327 3.1378218 3.2373762 3.1536633.0040595.0035644.2683268.2550495 3.2199208 3.1370297.0121783.0114852.0247624.0233664.0369406.0348515 1.8628614 1.8170297 2.9150594 1.0974258 2.9243961 1.0887129.0304455-.0253465.0617029-.0495049.0937723-.0720792l4.571297-4.4594059c.5516732-.539406 1.2880495-.8372278 2.0715148-.8372278.7822476 0 1.5186238.2970297 2.0719208.8368317z"/><path d="m41 21c0 1.1045695-.8954305 2-2 2s-2-.8954305-2-2c0-4.418278-3.581722-8-8-8-1.1045695 0-2-.8954305-2-2s.8954305-2 2-2c6.627417 0 12 5.372583 12 12z"/><path d="m46 21c0 1.1045695-.8954305 2-2 2s-2-.8954305-2-2c0-7.1797017-5.8202983-13-13-13-1.1045695 0-2-.8954305-2-2s.8954305-2 2-2c9.3888407 0 17 7.6111593 17 17z"/></g></svg>

<?xml version="1.0" encoding="UTF-8"?>
<svg width="50px" height="50px" viewBox="0 0 50 50" version="1.1" xmlns="http://www.w3.org/2000/svg" xmlns:xlink="http://www.w3.org/1999/xlink">
    <!-- Generator: Sketch 52.4 (67378) - http://www.bohemiancoding.com/sketch -->
    <title>043-phone</title>
    <desc>Created with Sketch.</desc>
    <g id="043-phone" stroke="none" stroke-width="1" fill="none" fill-rule="evenodd">
        <path d="M34.5848112,31.7303814 L30.7347733,35.4861825 C30.6183742,35.5997325 30.4951929,35.7060461 30.365926,35.8045447 C28.2613607,37.5395529 24.8749323,37.1466602 22.1790273,34.5163172 L22.1597363,34.4981172 C22.1505837,34.4894807 22.1505837,34.4894807 22.0920204,34.4334214 C20.7966165,33.1685698 19.9179621,32.3118775 19.3824271,31.7910479 C19.192508,31.6063439 19.1046036,31.5210374 18.9756932,31.3962228 C18.8856861,31.3103687 18.8856861,31.3103687 19.0273706,31.4401767 L18.9088155,31.3317872 C18.7904422,31.2191179 17.8673422,30.3208936 15.6369425,28.1448934 C13.0365831,25.6097981 12.5205717,22.6049853 13.9213418,20.3259939 C14.0936589,20.0456415 14.2999135,19.7876246 14.5354296,19.5577925 L18.3198053,15.8647512 L12.7535103,10.4332909 L8.76121808,14.3285228 C7.28850991,17.0251264 7.99749219,20.6267083 10.6790972,24.920524 C11.7858405,26.6926536 13.1441476,28.434742 14.6283867,30.0708831 C15.1807877,30.6798186 15.7205713,31.2405021 16.2318293,31.7448239 C16.5795993,32.0878758 16.8689463,32.3606344 17.0823736,32.5538554 C17.1799551,32.6421984 17.2731164,32.7353042 17.3615174,32.8328331 C17.7790012,33.2934245 18.3997679,33.9320981 19.1890109,34.6771316 C20.3887901,35.809705 21.6921153,36.9126612 23.0596059,37.914368 C26.6051341,40.5115189 30.0037826,42.000345 32.8139685,41.9999604 C33.9552935,41.9999604 34.9935579,41.7556489 35.9701902,41.2407205 L40.1520285,37.1615046 L34.5848112,31.7303814 Z M40.8925657,32.2957995 C40.235258,32.9586785 42.8087281,33.9069301 42.8087281,35.1397624 L43.8077931,35.1397624 C44.949704,36.2534257 44.9505158,38.0668911 43.8090109,39.1821386 L38.5094564,44.3516436 C38.3673772,44.4902574 38.2017535,44.6003564 38.0215158,44.6787723 C36.3364564,45.6094653 34.5779218,45.9999604 32.8145158,45.9999604 C24.1322584,46.0011485 15.3192881,36.535802 14.397803,35.5191683 C13.1694267,34.4070891 -0.34839505,21.826099 5.43016931,12.096198 C5.50526832,11.9536238 5.60391188,11.8201584 5.72650594,11.7009505 L10.6810109,6.86689109 C11.8221099,5.75283168 13.6809119,5.75243564 14.8248525,6.86570297 L21.9767139,13.8443168 C22.529605,14.3841188 22.8344663,15.1017426 22.8344663,15.8649109 C22.8344663,16.6280792 22.529605,17.345703 21.9763079,17.885505 L17.3291,22.4205545 C17.1886446,22.6490693 16.7506347,23.6443168 18.429199,25.2807525 C21.3259911,28.1068911 21.6499317,28.4185743 21.6665752,28.4344158 C21.6706347,28.4379802 21.934902,28.6894653 24.886496,31.5714455 C24.8986743,31.5829307 24.9112584,31.5948119 24.9234366,31.606297 C26.786298,33.4233267 27.838496,32.7037228 27.8478327,32.6950099 C27.8782782,32.6696634 27.9095356,32.645505 27.941605,32.6229307 L32.512902,28.1635248 C33.0645752,27.6241188 33.8009515,27.326297 34.5844168,27.326297 C35.3666644,27.326297 36.1030406,27.6233267 36.6563376,28.1631287 L40.8925657,32.2957995 Z" id="Path" fill="#000000" fill-rule="nonzero"></path>
        <path d="M41,21 C41,22.1045695 40.1045695,23 39,23 C37.8954305,23 37,22.1045695 37,21 C37,16.581722 33.418278,13 29,13 C27.8954305,13 27,12.1045695 27,11 C27,9.8954305 27.8954305,9 29,9 C35.627417,9 41,14.372583 41,21 Z" id="Shape" fill="#000000" fill-rule="nonzero"></path>
        <path d="M46,21 C46,22.1045695 45.1045695,23 44,23 C42.8954305,23 42,22.1045695 42,21 C42,13.8202983 36.1797017,8 29,8 C27.8954305,8 27,7.1045695 27,6 C27,4.8954305 27.8954305,4 29,4 C38.3888407,4 46,11.6111593 46,21 Z" id="Shape" fill="#000000" fill-rule="nonzero"></path>
    </g>
</svg>
